static/images/navigation/company/connect.svg

<svg height="57.116" viewBox="0 0 59.729 57.116" width="59.729" xmlns="http://www.w3.org/2000/svg"><g fill="#414042"><path d="m3.221 8.044a5.35 5.35 0 0 1 -2.474-.614c-2.424-1.25-3.99-4.176-3.99-7.456 0-4.451 2.9-8.072 6.464-8.072s6.464 3.621 6.464 8.071c0 3.281-1.567 6.207-3.99 7.456a5.344 5.344 0 0 1 -2.474.614m0-14.387c-2.607 0-4.73 2.834-4.73 6.316 0 2.587 1.224 4.955 3.046 5.892a3.575 3.575 0 0 0 3.368 0c1.822-.937 3.046-3.3 3.046-5.892 0-3.482-2.123-6.316-4.73-6.316" transform="translate(9.053 8.099)"/><path d="m11.8 5.505h-22.814a.872.872 0 0 1 -.867-.877v-4.664a5.483 5.483 0 0 1 5.445-5.507h4.75a.871.871 0 0 1 .867.877v.231a1.216 1.216 0 0 0 .4.907 1.184 1.184 0 0 0 .935.311 1.277 1.277 0 0 0 1.084-1.307v-.142a.872.872 0 0 1 .867-.877h4.75a5.481 5.481 0 0 1 5.45 5.507v4.664a.871.871 0 0 1 -.867.877m-21.947-1.754h21.08v-3.787a3.738 3.738 0 0 0 -3.712-3.753h-3.968a3 3 0 0 1 -2.573 2.32 2.943 2.943 0 0 1 -2.268-.761 3 3 0 0 1 -.895-1.559h-3.953a3.738 3.738 0 0 0 -3.711 3.753z" transform="translate(11.881 22.934)"/><path d="m1.468 3.792a2.967 2.967 0 0 1 -2.946-2.98v-3.753a.875.875 0 0 1 .415-.747.857.857 0 0 1 .847-.034 3.586 3.586 0 0 0 3.368 0 .862.862 0 0 1 .848.034.875.875 0 0 1 .415.747v3.753a2.967 2.967 0 0 1 -2.946 2.98m-1.213-5.479v2.5a1.221 1.221 0 0 0 1.212 1.225 1.221 1.221 0 0 0 1.212-1.226v-2.5a5.242 5.242 0 0 1 -2.424 0" transform="translate(10.806 17.687)"/><path d="m3.221 8.044a5.361 5.361 0 0 1 -2.472-.614c-2.425-1.248-3.992-4.176-3.992-7.457 0-4.451 2.9-8.072 6.464-8.072s6.464 3.622 6.464 8.072c0 3.281-1.567 6.207-3.99 7.456a5.381 5.381 0 0 1 -2.474.614m0-14.387c-2.607 0-4.73 2.832-4.73 6.316 0 2.587 1.224 4.955 3.046 5.892a3.575 3.575 0 0 0 3.368 0c1.822-.937 3.046-3.3 3.046-5.892 0-3.484-2.123-6.316-4.73-6.316" transform="translate(44.234 36.775)"/><path d="m11.8 5.505h-22.814a.872.872 0 0 1 -.867-.877v-4.664a5.481 5.481 0 0 1 5.445-5.507h4.75a.872.872 0 0 1 .867.877v.231a1.222 1.222 0 0 0 .4.907 1.2 1.2 0 0 0 .937.313 1.282 1.282 0 0 0 1.082-1.309v-.142a.871.871 0 0 1 .867-.877h4.75a5.483 5.483 0 0 1 5.45 5.507v4.664a.872.872 0 0 1 -.867.877m-21.947-1.754h21.08v-3.787a3.738 3.738 0 0 0 -3.712-3.753h-3.97a3 3 0 0 1 -2.571 2.32 2.928 2.928 0 0 1 -2.268-.761 2.985 2.985 0 0 1 -.895-1.559h-3.953a3.738 3.738 0 0 0 -3.711 3.753z" transform="translate(47.062 51.611)"/><path d="m1.468 3.792a2.967 2.967 0 0 1 -2.946-2.98v-3.753a.88.88 0 0 1 .415-.747.862.862 0 0 1 .847-.034 3.581 3.581 0 0 0 3.368 0 .856.856 0 0 1 .848.034.875.875 0 0 1 .415.747v3.753a2.967 2.967 0 0 1 -2.946 2.98m-1.213-5.479v2.5a1.221 1.221 0 0 0 1.212 1.225 1.221 1.221 0 0 0 1.212-1.226v-2.5a5.242 5.242 0 0 1 -2.424 0" transform="translate(45.987 46.363)"/><path d="m.432 11.573a.872.872 0 0 1 -.867-.873v-21.47a.874.874 0 0 1 .867-.879.874.874 0 0 1 .867.879v21.47a.872.872 0 0 1 -.867.877" transform="translate(5.428 38.337)"/><path d="m13.077.874h-25.377a.872.872 0 0 1 -.867-.874.872.872 0 0 1 .867-.88h25.377a.871.871 0 0 1 .867.88.871.871 0 0 1 -.867.877" transform="translate(21.813 52.934)"/><path d="m.432 3.863a.861.861 0 0 1 -.632-.279.885.885 0 0 1 .04-1.24l2.492-2.358-2.494-2.357a.885.885 0 0 1 -.038-1.24.86.86 0 0 1 1.226-.042l3.171 3a.879.879 0 0 1 .275.64.886.886 0 0 1 -.272.641l-3.171 3a.855.855 0 0 1 -.592.237" transform="translate(30.834 52.943)"/><path d="m.432 9.468a.872.872 0 0 1 -.867-.877v-17.247a.872.872 0 0 1 .867-.877.871.871 0 0 1 .867.877v17.247a.871.871 0 0 1 -.867.877" transform="translate(46.919 19.662)"/><path d="m11.936.874h-23.085a.873.873 0 0 1 -.869-.874.873.873 0 0 1 .869-.877h23.085a.872.872 0 0 1 .864.877.872.872 0 0 1 -.867.877" transform="translate(32.048 7.326)"/><path d="m1.973 3.466a.851.851 0 0 1 -.554-.2l-3.093-2.602a.881.881 0 0 1 -.313-.676.873.873 0 0 1 .313-.674l3.093-2.6a.86.86 0 0 1 1.222.114.884.884 0 0 1 -.112 1.236l-2.292 1.924 2.292 1.925a.885.885 0 0 1 .112 1.236.86.86 0 0 1 -.668.317" transform="translate(21.62 7.333)"/><path d="m1.814 2.271a.862.862 0 0 1 -.614-.257l-2.772-2.8a.885.885 0 0 1 0-1.242.861.861 0 0 1 1.228 0l2.158 2.181 2.159-2.183a.861.861 0 0 1 1.228 0 .885.885 0 0 1 0 1.242l-2.772 2.8a.862.862 0 0 1 -.614.257" transform="translate(45.537 27.569)"/><path d="m2.121 4.289a4.286 4.286 0 0 1 -4.257-4.305 4.284 4.284 0 0 1 4.257-4.3 4.284 4.284 0 0 1 4.257 4.3 4.286 4.286 0 0 1 -4.257 4.305m0-6.854a2.539 2.539 0 0 0 -2.521 2.549 2.54 2.54 0 0 0 2.521 2.551 2.54 2.54 0 0 0 2.522-2.551 2.539 2.539 0 0 0 -2.522-2.549" transform="translate(4.004 52.595)"/><path d="m2.121 4.29a4.286 4.286 0 0 1 -4.257-4.305 4.286 4.286 0 0 1 4.257-4.305 4.286 4.286 0 0 1 4.258 4.305 4.286 4.286 0 0 1 -4.258 4.305m0-6.854a2.539 2.539 0 0 0 -2.521 2.549 2.54 2.54 0 0 0 2.521 2.551 2.538 2.538 0 0 0 2.522-2.551 2.538 2.538 0 0 0 -2.522-2.549" transform="translate(45.23 7.336)"/></g></svg>

<?xml version="1.0" encoding="UTF-8"?>
<svg xmlns="http://www.w3.org/2000/svg" width="59.729" height="57.116" viewBox="0 0 59.729 57.116">
  <g id="Group_1322" data-name="Group 1322" transform="translate(-2698.081 155.344)">
    <g id="Group_1126" data-name="Group 1126" transform="translate(2703.891 -155.344)">
      <path id="Path_2464" data-name="Path 2464" d="M3.221,8.044A5.35,5.35,0,0,1,.747,7.43c-2.424-1.25-3.99-4.176-3.99-7.456,0-4.451,2.9-8.072,6.464-8.072S9.685-4.477,9.685-.027c0,3.281-1.567,6.207-3.99,7.456a5.344,5.344,0,0,1-2.474.614m0-14.387c-2.607,0-4.73,2.834-4.73,6.316,0,2.587,1.224,4.955,3.046,5.892a3.575,3.575,0,0,0,3.368,0c1.822-.937,3.046-3.3,3.046-5.892,0-3.482-2.123-6.316-4.73-6.316" transform="translate(3.243 8.099)" fill="#414042"></path>
    </g>
    <g id="Group_1127" data-name="Group 1127" transform="translate(2698.081 -137.953)">
      <path id="Path_2465" data-name="Path 2465" d="M11.8,5.505H-11.014a.872.872,0,0,1-.867-.877V-.036A5.483,5.483,0,0,1-6.436-5.543h4.75a.871.871,0,0,1,.867.877v.231a1.216,1.216,0,0,0,.4.907,1.184,1.184,0,0,0,.935.311A1.277,1.277,0,0,0,1.6-4.524v-.142a.872.872,0,0,1,.867-.877h4.75A5.481,5.481,0,0,1,12.667-.036V4.628a.871.871,0,0,1-.867.877M-10.147,3.751h21.08V-.036A3.738,3.738,0,0,0,7.221-3.789H3.253A3,3,0,0,1,.68-1.469,2.943,2.943,0,0,1-1.588-2.23a3,3,0,0,1-.895-1.559H-6.436A3.738,3.738,0,0,0-10.147-.036Z" transform="translate(11.881 5.543)" fill="#414042"></path>
    </g>
    <g id="Group_1128" data-name="Group 1128" transform="translate(2707.409 -141.475)">
      <path id="Path_2466" data-name="Path 2466" d="M1.468,3.792A2.967,2.967,0,0,1-1.478.812V-2.941a.875.875,0,0,1,.415-.747.857.857,0,0,1,.847-.034,3.586,3.586,0,0,0,3.368,0A.862.862,0,0,1,4-3.688a.875.875,0,0,1,.415.747V.812a2.967,2.967,0,0,1-2.946,2.98M.256-1.687v2.5A1.221,1.221,0,0,0,1.468,2.038,1.221,1.221,0,0,0,2.68.812v-2.5a5.242,5.242,0,0,1-2.424,0" transform="translate(1.478 3.818)" fill="#414042"></path>
    </g>
    <g id="Group_1129" data-name="Group 1129" transform="translate(2739.072 -126.668)">
      <path id="Path_2467" data-name="Path 2467" d="M3.221,8.044A5.361,5.361,0,0,1,.749,7.43C-1.676,6.182-3.243,3.254-3.243-.027c0-4.451,2.9-8.072,6.464-8.072S9.685-4.477,9.685-.027c0,3.281-1.567,6.207-3.99,7.456a5.381,5.381,0,0,1-2.474.614m0-14.387c-2.607,0-4.73,2.832-4.73,6.316,0,2.587,1.224,4.955,3.046,5.892a3.575,3.575,0,0,0,3.368,0c1.822-.937,3.046-3.3,3.046-5.892,0-3.484-2.123-6.316-4.73-6.316" transform="translate(3.243 8.099)" fill="#414042"></path>
    </g>
    <g id="Group_1130" data-name="Group 1130" transform="translate(2733.262 -109.276)">
      <path id="Path_2468" data-name="Path 2468" d="M11.8,5.505H-11.014a.872.872,0,0,1-.867-.877V-.036A5.481,5.481,0,0,1-6.436-5.543h4.75a.872.872,0,0,1,.867.877v.231a1.222,1.222,0,0,0,.4.907,1.2,1.2,0,0,0,.937.313A1.282,1.282,0,0,0,1.6-4.524v-.142a.871.871,0,0,1,.867-.877h4.75A5.483,5.483,0,0,1,12.667-.036V4.628a.872.872,0,0,1-.867.877M-10.147,3.751h21.08V-.036A3.738,3.738,0,0,0,7.221-3.789H3.251A3,3,0,0,1,.68-1.469,2.928,2.928,0,0,1-1.588-2.23a2.985,2.985,0,0,1-.895-1.559H-6.436A3.738,3.738,0,0,0-10.147-.036Z" transform="translate(11.881 5.543)" fill="#414042"></path>
    </g>
    <g id="Group_1131" data-name="Group 1131" transform="translate(2742.59 -112.799)">
      <path id="Path_2469" data-name="Path 2469" d="M1.468,3.792A2.967,2.967,0,0,1-1.478.812V-2.941a.88.88,0,0,1,.415-.747.862.862,0,0,1,.847-.034,3.581,3.581,0,0,0,3.368,0A.856.856,0,0,1,4-3.688a.875.875,0,0,1,.415.747V.812a2.967,2.967,0,0,1-2.946,2.98M.256-1.687v2.5A1.221,1.221,0,0,0,1.468,2.038,1.221,1.221,0,0,0,2.68.812v-2.5a5.242,5.242,0,0,1-2.424,0" transform="translate(1.478 3.818)" fill="#414042"></path>
    </g>
    <g id="Group_1132" data-name="Group 1132" transform="translate(2703.074 -128.66)">
      <path id="Path_2470" data-name="Path 2470" d="M.432,11.573A.872.872,0,0,1-.435,10.7v-21.47a.874.874,0,0,1,.867-.879.874.874,0,0,1,.867.879V10.7a.872.872,0,0,1-.867.877" transform="translate(0.435 11.653)" fill="#414042"></path>
    </g>
    <g id="Group_1133" data-name="Group 1133" transform="translate(2706.727 -103.29)">
      <path id="Path_2471" data-name="Path 2471" d="M13.077.874H-12.3A.872.872,0,0,1-13.167,0,.872.872,0,0,1-12.3-.88H13.077A.871.871,0,0,1,13.944,0a.871.871,0,0,1-.867.877" transform="translate(13.167 0.88)" fill="#414042"></path>
    </g>
    <g id="Group_1134" data-name="Group 1134" transform="translate(2728.48 -106.291)">
      <path id="Path_2472" data-name="Path 2472" d="M.432,3.863A.861.861,0,0,1-.2,3.584a.885.885,0,0,1,.04-1.24L2.332-.014-.162-2.371A.885.885,0,0,1-.2-3.611a.86.86,0,0,1,1.226-.042l3.171,3a.879.879,0,0,1,.275.64A.886.886,0,0,1,4.2.628l-3.171,3a.855.855,0,0,1-.592.237" transform="translate(0.435 3.89)" fill="#414042"></path>
    </g>
    <g id="Group_1135" data-name="Group 1135" transform="translate(2744.565 -145.215)">
      <path id="Path_2473" data-name="Path 2473" d="M.432,9.468a.872.872,0,0,1-.867-.877V-8.656a.872.872,0,0,1,.867-.877.871.871,0,0,1,.867.877V8.591a.871.871,0,0,1-.867.877" transform="translate(0.435 9.533)" fill="#414042"></path>
    </g>
    <g id="Group_1136" data-name="Group 1136" transform="translate(2718.111 -148.898)">
      <path id="Path_2474" data-name="Path 2474" d="M11.936.874H-11.149A.873.873,0,0,1-12.018,0a.873.873,0,0,1,.869-.877H11.936A.872.872,0,0,1,12.8,0a.872.872,0,0,1-.867.877" transform="translate(12.018 0.88)" fill="#414042"></path>
    </g>
    <g id="Group_1137" data-name="Group 1137" transform="translate(2717.714 -151.501)">
      <path id="Path_2475" data-name="Path 2475" d="M1.973,3.466a.851.851,0,0,1-.554-.2L-1.674.664a.881.881,0,0,1-.313-.676.873.873,0,0,1,.313-.674l3.093-2.6a.86.86,0,0,1,1.222.114.884.884,0,0,1-.112,1.236L.237-.012,2.529,1.913a.885.885,0,0,1,.112,1.236.86.86,0,0,1-.668.317" transform="translate(1.987 3.49)" fill="#414042"></path>
    </g>
    <g id="Group_1138" data-name="Group 1138" transform="translate(2741.792 -130.062)">
      <path id="Path_2476" data-name="Path 2476" d="M1.814,2.271A.862.862,0,0,1,1.2,2.014l-2.772-2.8a.885.885,0,0,1,0-1.242.861.861,0,0,1,1.228,0L1.814.153,3.973-2.03a.861.861,0,0,1,1.228,0,.885.885,0,0,1,0,1.242l-2.772,2.8a.862.862,0,0,1-.614.257" transform="translate(1.826 2.287)" fill="#414042"></path>
    </g>
    <g id="Group_1139" data-name="Group 1139" transform="translate(2699.949 -107.068)">
      <path id="Path_2477" data-name="Path 2477" d="M2.121,4.289A4.286,4.286,0,0,1-2.136-.016a4.284,4.284,0,0,1,4.257-4.3,4.284,4.284,0,0,1,4.257,4.3A4.286,4.286,0,0,1,2.121,4.289m0-6.854A2.539,2.539,0,0,0-.4-.016,2.54,2.54,0,0,0,2.121,2.535,2.54,2.54,0,0,0,4.643-.016,2.539,2.539,0,0,0,2.121-2.565" transform="translate(2.136 4.319)" fill="#414042"></path>
    </g>
    <g id="Group_1140" data-name="Group 1140" transform="translate(2741.175 -152.328)">
      <path id="Path_2478" data-name="Path 2478" d="M2.121,4.29A4.286,4.286,0,0,1-2.136-.015,4.286,4.286,0,0,1,2.121-4.32,4.286,4.286,0,0,1,6.379-.015,4.286,4.286,0,0,1,2.121,4.29m0-6.854A2.539,2.539,0,0,0-.4-.015,2.54,2.54,0,0,0,2.121,2.536,2.538,2.538,0,0,0,4.643-.015,2.538,2.538,0,0,0,2.121-2.564" transform="translate(2.136 4.32)" fill="#414042"></path>
    </g>
  </g>
</svg>
